packages/core/src/svgs/copi.svg

<svg width="24" height="24" viewBox="0 0 24 24" fill="none" xmlns="http://www.w3.org/2000/svg">
<g clip-path="url(#clip0_31_8591)">
<path d="M0 0H24V24H0V0Z" fill="url(#paint0_linear_31_8591)"/>
<path d="M8.57157 12.8571C8.78586 16.0713 10.903 18.0985 12.1801 18.6128C10.6801 19.2728 7.21729 19.0199 7.21729 12.6599C7.21729 6.26991 11.053 4.94562 13.0844 4.72705L15.1116 5.16848L16.7144 4.72705L17.143 5.16848C16.603 5.33991 15.8059 6.34277 15.4287 6.85705C14.8887 5.79848 13.6073 5.57134 13.0844 5.57134C10.5987 5.57134 8.30586 8.89277 8.57157 12.8571Z" fill="url(#paint1_linear_31_8591)"/>
<path d="M16.7142 4.72707C16.0156 4.9285 15.3385 5.75564 15.1114 6.26993C14.9031 5.91686 14.604 5.62606 14.2453 5.42782C13.8865 5.22959 13.4811 5.13116 13.0714 5.14279C11.2542 5.14279 7.71422 7.78707 7.71422 12.6428C7.71422 17.4685 10.5899 18.6428 13.0714 18.6428C14.5714 18.6428 15.4928 17.6699 15.3385 17.0699C15.2614 16.7742 15.2956 16.1871 16.0156 16.1871C16.7356 16.1871 16.7828 16.6285 16.6928 17.0699C16.4656 18.1714 14.7214 19.7142 11.7856 19.7142C8.85422 19.7142 6.53993 16.1871 5.86279 14.6442C5.32279 13.4099 4.58564 12.9556 4.28564 12.8828C4.64564 12.1756 5.48564 12.1456 5.86279 12.2185C5.76959 10.2114 6.47609 8.24914 7.82738 6.76208C9.17867 5.27502 11.0645 4.38446 13.0714 4.28564C13.9714 4.28564 14.6614 4.58136 14.8885 4.72707C15.1993 4.44977 15.5992 4.29314 16.0156 4.28564C16.2856 4.28564 16.4999 4.49993 16.7142 4.72707Z" fill="url(#paint2_linear_31_8591)"/>
</g>
<defs>
<linearGradient id="paint0_linear_31_8591" x1="4.46571" y1="4.16143" x2="29.2071" y2="32.58" gradientUnits="userSpaceOnUse">
<stop stop-color="#1A1E21"/>
<stop offset="1" stop-color="#06060A"/>
</linearGradient>
<linearGradient id="paint1_linear_31_8591" x1="12.1801" y1="4.72705" x2="12.1801" y2="18.8613" gradientUnits="userSpaceOnUse">
<stop stop-color="#7C4F14"/>
<stop offset="0.17" stop-color="#CF8C21"/>
<stop offset="0.28" stop-color="#F0B035"/>
<stop offset="0.43" stop-color="#734A08"/>
<stop offset="0.67" stop-color="#BC7908"/>
<stop offset="1" stop-color="#3E1E05"/>
</linearGradient>
<linearGradient id="paint2_linear_31_8591" x1="10.5042" y1="4.28564" x2="10.5042" y2="19.7142" gradientUnits="userSpaceOnUse">
<stop stop-color="#EFDF58"/>
<stop offset="0.47" stop-color="#C67D16"/>
<stop offset="1" stop-color="#8B4102"/>
</linearGradient>
<clipPath id="clip0_31_8591">
<rect width="24" height="24" fill="white"/>
</clipPath>
</defs>
</svg>

<svg xmlns="http://www.w3.org/2000/svg" width="24" height="24" fill="none" viewBox="0 0 24 24"><g clip-path="url(#a)"><path fill="url(#b)" d="M0 0h24v24H0z"/><path fill="url(#c)" d="M8.572 12.857c.214 3.214 2.331 5.242 3.608 5.756-1.5.66-4.963.407-4.963-5.953 0-6.39 3.836-7.714 5.867-7.933l2.028.441 1.602-.44.429.44c-.54.172-1.337 1.175-1.714 1.689-.54-1.059-1.822-1.286-2.345-1.286-2.485 0-4.778 3.322-4.512 7.286"/><path fill="url(#d)" d="M16.714 4.727c-.698.201-1.375 1.029-1.603 1.543a2.3 2.3 0 0 0-2.04-1.127c-1.817 0-5.357 2.644-5.357 7.5 0 4.825 2.876 6 5.357 6 1.5 0 2.422-.973 2.268-1.573-.078-.296-.043-.883.677-.883s.767.441.677.883c-.227 1.101-1.972 2.644-4.907 2.644-2.932 0-5.246-3.527-5.923-5.07-.54-1.234-1.277-1.688-1.577-1.761.36-.707 1.2-.737 1.577-.664a7.59 7.59 0 0 1 7.208-7.933c.9 0 1.59.295 1.818.441a1.74 1.74 0 0 1 1.127-.441c.27 0 .484.214.698.441"/></g><defs><linearGradient id="b" x1="4.466" x2="29.207" y1="4.161" y2="32.58" gradientUnits="userSpaceOnUse"><stop stop-color="#1A1E21"/><stop offset="1" stop-color="#06060A"/></linearGradient><linearGradient id="c" x1="12.18" x2="12.18" y1="4.727" y2="18.861" gradientUnits="userSpaceOnUse"><stop stop-color="#7C4F14"/><stop offset=".17" stop-color="#CF8C21"/><stop offset=".28" stop-color="#F0B035"/><stop offset=".43" stop-color="#734A08"/><stop offset=".67" stop-color="#BC7908"/><stop offset="1" stop-color="#3E1E05"/></linearGradient><linearGradient id="d" x1="10.504" x2="10.504" y1="4.286" y2="19.714" gradientUnits="userSpaceOnUse"><stop stop-color="#EFDF58"/><stop offset=".47" stop-color="#C67D16"/><stop offset="1" stop-color="#8B4102"/></linearGradient><clipPath id="a"><path fill="#fff" d="M0 0h24v24H0z"/></clipPath></defs></svg>
